src/assets/images/delete.svg

<svg width="24" height="18" viewBox="0 0 24 18" fill="none" xmlns="http://www.w3.org/2000/svg">
<path d="M6.08733 2.04186C6.22633 1.90186 6.33033 1.79886 6.42733 1.70386C6.52433 1.60886 6.62733 1.50986 6.72733 1.40386C6.81433 1.31086 6.82733 1.30386 6.83933 1.28586C7.15012 0.975853 7.50826 0.717285 7.90033 0.519859C8.28925 0.323869 8.70512 0.186707 9.13433 0.112859C9.526 0.050419 9.92174 0.0169947 10.3183 0.0128594C10.5093 0.0128594 10.6753 0.00585938 10.8293 0.00585938C10.9983 0.00585938 11.1293 0.00585938 11.4293 0.00585938H18.1293C18.4293 0.00585938 18.5643 0.00585938 18.7293 0.00585938C18.8943 0.00585938 19.0573 0.00585938 19.2383 0.0128594C19.6404 0.0180932 20.0415 0.0531898 20.4383 0.117859C20.8633 0.190786 21.2751 0.326256 21.6603 0.519859C22.0515 0.717714 22.4083 0.977005 22.7173 1.28786C23.0264 1.59815 23.2852 1.95477 23.4843 2.34486C23.6777 2.73354 23.8125 3.14871 23.8843 3.57686C23.9471 3.96781 23.9806 4.36292 23.9843 4.75886C23.9843 4.81486 23.9843 4.87186 23.9843 4.93486C23.9843 4.99786 23.9843 5.05386 23.9843 5.17386V12.6819C23.9843 12.7429 23.9843 12.7429 23.9843 12.8059C23.9843 12.9999 23.9843 13.0879 23.9773 13.1869C23.9724 13.5919 23.937 13.9961 23.8713 14.3959C23.7972 14.8278 23.6593 15.2464 23.4623 15.6379C23.262 16.0294 23.0018 16.3874 22.6913 16.6989C22.3793 17.0115 22.0195 17.2724 21.6253 17.4719C21.2346 17.669 20.8167 17.8068 20.3853 17.8809C19.9886 17.9462 19.5874 17.9817 19.1853 17.9869C18.9733 17.9869 18.8193 17.9939 18.6653 17.9939H10.8353C10.6673 17.9939 10.4973 17.9939 10.3273 17.9869C9.92523 17.9818 9.52409 17.9464 9.12733 17.8809C8.69952 17.807 8.28502 17.6702 7.89733 17.4749C7.51454 17.2803 7.16462 17.0269 6.86033 16.7239C6.83533 16.7009 6.81733 16.6819 6.76833 16.6309C6.63933 16.5049 6.55633 16.4239 6.43133 16.2979C6.33133 16.2029 6.25833 16.1269 6.08733 15.9559L3.81133 13.6759C3.73733 13.6079 3.69733 13.5689 3.62933 13.5019C3.56133 13.4349 3.50133 13.3759 3.39833 13.2729L1.32333 11.1939L1.23233 11.0999L1.13233 10.9999C1.06033 10.9279 1.00633 10.8729 0.97033 10.8339C0.796681 10.6622 0.632442 10.4813 0.47833 10.2919C0.333834 10.1393 0.217083 9.96261 0.13333 9.76986L0.11233 9.71186C-0.0374434 9.24832 -0.0374434 8.7494 0.11233 8.28586L0.13433 8.22786C0.216975 8.03319 0.333061 7.85449 0.47733 7.69986C0.628152 7.51479 0.788712 7.33787 0.95833 7.16986C1.02933 7.09586 1.07933 7.04486 1.14233 6.98086L1.20033 6.92886L1.33233 6.79486L3.40033 4.72286L3.49433 4.63086L3.60033 4.52486C3.66133 4.46386 3.72033 4.40686 3.79133 4.33886C3.80033 4.33186 6.08733 2.04186 6.08733 2.04186Z" fill="#3E524D"/>
<path d="M17.2086 5.4502L10.9766 11.6902L11.8226 12.5362L18.0546 6.2962L17.2086 5.4502Z" fill="white"/>
<path d="M18.0518 11.6871L11.8138 5.45215L10.9688 6.29915L17.2077 12.5311L18.0518 11.6871Z" fill="white"/>
</svg>

<svg xmlns="http://www.w3.org/2000/svg" width="24" height="17.995" viewBox="0 0 24 17.995">
  <g id="delete" transform="translate(-301 -748)">
    <path id="Path" d="M6.087,2.042c.139-.14.243-.243.34-.338s.2-.194.3-.3c.087-.093.1-.1.112-.118A4.137,4.137,0,0,1,7.9.52,4.4,4.4,0,0,1,9.134.113a8.054,8.054,0,0,1,1.184-.1c.191,0,.357-.007.511-.007.169,0,.3,0,.6,0h6.7c.3,0,.435,0,.6,0s.328,0,.509.007a8.118,8.118,0,0,1,1.2.105A4.366,4.366,0,0,1,21.66.52a4.1,4.1,0,0,1,1.057.768,4.21,4.21,0,0,1,.767,1.057,4.4,4.4,0,0,1,.4,1.232,7.93,7.93,0,0,1,.1,1.182c0,.056,0,.113,0,.176s0,.119,0,.239v7.508c0,.061,0,.061,0,.124,0,.194,0,.282-.007.381a8.071,8.071,0,0,1-.106,1.209,4.43,4.43,0,0,1-.409,1.242,4.237,4.237,0,0,1-.771,1.061,4.159,4.159,0,0,1-1.066.773,4.408,4.408,0,0,1-1.24.409,8.022,8.022,0,0,1-1.2.106c-.212,0-.366.007-.52.007H10.835c-.168,0-.338,0-.508-.007a7.976,7.976,0,0,1-1.2-.106,4.393,4.393,0,0,1-1.23-.406,4.108,4.108,0,0,1-1.037-.751c-.025-.023-.043-.042-.092-.093-.129-.126-.212-.207-.337-.333-.1-.095-.173-.171-.344-.342L3.811,13.676c-.074-.068-.114-.107-.182-.174s-.128-.126-.231-.229L1.323,11.194,1.232,11.1l-.1-.1c-.072-.072-.126-.127-.162-.166a6.774,6.774,0,0,1-.492-.542,1.806,1.806,0,0,1-.345-.522L.112,9.712a2.319,2.319,0,0,1,0-1.426l.022-.058A1.812,1.812,0,0,1,.477,7.7a6.732,6.732,0,0,1,.481-.53c.071-.074.121-.125.184-.189L1.2,6.929l.132-.134L3.4,4.723l.094-.092L3.6,4.525c.061-.061.12-.118.191-.186C3.8,4.332,6.087,2.042,6.087,2.042Z" transform="translate(301 748)" fill="#041513"/>
    <path id="path-2" data-name="path" d="M6.232,0,0,6.24l.846.846L7.078.846Z" transform="translate(311.978 753.45)" fill="#fff"/>
    <path id="path-3" data-name="path" d="M7.083,6.235.845,0,0,.847,6.239,7.079Z" transform="translate(311.969 753.453)" fill="#fff"/>
  </g>
</svg>
